public/cloud-icons/azure/ai/azure-percept-device.svg

<?xml version="1.0" encoding="UTF-8" standalone="no"?>
<!-- Generated by Microsoft Visio, SVG Export Azure Percept Device.svg Page-1 -->

<svg
   xmlns:dc="http://purl.org/dc/elements/1.1/"
   xmlns:cc="http://creativecommons.org/ns#"
   xmlns:rdf="http://www.w3.org/1999/02/22-rdf-syntax-ns#"
   xmlns:svg="http://www.w3.org/2000/svg"
   xmlns="http://www.w3.org/2000/svg"
   xmlns:sodipodi="http://sodipodi.sourceforge.net/DTD/sodipodi-0.dtd"
   xmlns:inkscape="http://www.inkscape.org/namespaces/inkscape"
   width="56.695786"
   height="45.360401"
   viewBox="0 0 56.695784 45.3604"
   xml:space="preserve"
   class="st6"
   version="1.1"
   id="svg70"
   sodipodi:docname="Azure Percept Device.svg"
   style="font-size:12px;overflow:visible;color-interpolation-filters:sRGB;fill:none;fill-rule:evenodd;stroke-linecap:square;stroke-miterlimit:3"
   inkscape:version="0.92.5 (2060ec1f9f, 2020-04-08)"><metadata
   id="metadata74"><rdf:RDF><cc:Work
       rdf:about=""><dc:format>image/svg+xml</dc:format><dc:type
         rdf:resource="http://purl.org/dc/dcmitype/StillImage" /></cc:Work></rdf:RDF></metadata><sodipodi:namedview
   pagecolor="#ffffff"
   bordercolor="#666666"
   borderopacity="1"
   objecttolerance="10"
   gridtolerance="10"
   guidetolerance="10"
   inkscape:pageopacity="0"
   inkscape:pageshadow="2"
   inkscape:window-width="640"
   inkscape:window-height="480"
   id="namedview72"
   showgrid="false"
   inkscape:zoom="2.812688"
   inkscape:cx="28.346463"
   inkscape:cy="7.9415488"
   inkscape:window-x="0"
   inkscape:window-y="0"
   inkscape:window-maximized="0"
   inkscape:current-layer="svg70" />
	<style
   type="text/css"
   id="style2">
	<![CDATA[
		.st1 {fill:#0078d4;stroke:none;stroke-linecap:butt;stroke-width:0.75}
		.st2 {fill:url(#grad0-7);stroke:none;stroke-linecap:butt;stroke-width:0.75}
		.st3 {fill:url(#grad0-11);stroke:none;stroke-linecap:butt;stroke-width:0.75}
		.st4 {fill:#f2f2f2;stroke:none;stroke-linecap:butt;stroke-width:0.75}
		.st5 {fill:url(#grad0-17);stroke:none;stroke-linecap:butt;stroke-width:0.75}
		.st6 {fill:none;fill-rule:evenodd;font-size:12px;overflow:visible;stroke-linecap:square;stroke-miterlimit:3}
	]]>
	</style>

	<defs
   id="Patterns_And_Gradients">
		<linearGradient
   id="grad0-7"
   x1="-0.0038410162"
   y1="70.117482"
   x2="36.52978"
   y2="70.117482"
   gradientTransform="scale(1.2710178,0.78677105)"
   gradientUnits="userSpaceOnUse">
			<stop
   offset="0"
   stop-color="#d2ebff"
   stop-opacity="1"
   id="stop4" />
			<stop
   offset="1"
   stop-color="#f0fffd"
   stop-opacity="1"
   id="stop6" />
		</linearGradient>
		<linearGradient
   id="grad0-11"
   x1="-0.0059940032"
   y1="38.557517"
   x2="29.779566"
   y2="38.557517"
   gradientTransform="scale(0.81448072,1.2277762)"
   gradientUnits="userSpaceOnUse">
			<stop
   offset="0"
   stop-color="#0078d4"
   stop-opacity="1"
   id="stop9" />
			<stop
   offset="0.17"
   stop-color="#1c84dc"
   stop-opacity="1"
   id="stop11" />
			<stop
   offset="0.38"
   stop-color="#3990e4"
   stop-opacity="1"
   id="stop13" />
			<stop
   offset="0.59"
   stop-color="#4d99ea"
   stop-opacity="1"
   id="stop15" />
			<stop
   offset="0.8"
   stop-color="#5a9eee"
   stop-opacity="1"
   id="stop17" />
			<stop
   offset="1"
   stop-color="#5ea0ef"
   stop-opacity="1"
   id="stop19" />
		</linearGradient>
		<linearGradient
   id="grad0-17"
   x1="-0.0011547081"
   y1="44.610367"
   x2="24.059473"
   y2="44.610367"
   gradientTransform="scale(0.81838868,1.2219133)"
   gradientUnits="userSpaceOnUse">
			<stop
   offset="0"
   stop-color="#d2ebff"
   stop-opacity="1"
   id="stop22" />
			<stop
   offset="1"
   stop-color="#f0fffd"
   stop-opacity="1"
   id="stop24" />
		</linearGradient>
	</defs>
	<g
   id="g68"
   transform="translate(-5.6692875,-4.5339)">
		<title
   id="title28">Page-1</title>
		<g
   id="group20084-1"
   transform="translate(5.66929,-34.0157)">
			<title
   id="title30">Azure Percept Device.20084</title>
			<g
   id="shape20085-2"
   transform="translate(0,-11.5804)">
				<title
   id="title32">rect25</title>
				<path
   d="m 0,82.2 a 1.88981,1.70723 -180 0 0 1.89,1.71 H 50.65 A 1.88981,1.70723 -180 0 0 52.54,82.2 V 51.84 A 1.88981,1.70723 -180 0 0 50.65,50.13 H 1.89 A 1.88981,1.70723 -180 0 0 0,51.84 Z"
   class="st1"
   id="path34"
   inkscape:connector-curvature="0"
   style="fill:#0078d4;stroke:none;stroke-width:0.75;stroke-linecap:butt" />
			</g>
			<g
   id="shape20086-4"
   transform="translate(3.05512,-14.255)">
				<title
   id="title37">rect27</title>
				<path
   d="m 0,83.05 a 0.944904,0.853614 -180 0 0 0.944882,0.853595 L 45.48,83.91 a 0.944904,0.853614 -180 0 0 0.944882,-0.853595 L 46.43,56.02 A 0.944904,0.853614 -180 0 0 45.485118,55.166405 L 0.94,55.17 a 0.944904,0.853614 -180 0 0 -0.944882,0.853595 z"
   class="st2"
   id="path39"
   inkscape:connector-curvature="0"
   style="fill:url(#grad0-7);stroke:none;stroke-width:0.75;stroke-linecap:butt" />
			</g>
			<g
   id="shape20087-8"
   transform="translate(32.4409)">
				<title
   id="title42">rect29</title>
				<path
   d="m 0,83.05 a 0.944904,0.853614 -180 0 0 0.944882,0.853595 L 23.31,83.91 a 0.944904,0.853614 -180 0 0 0.944882,-0.853595 L 24.25,48.2 A 0.944904,0.853614 -180 0 0 23.305118,47.346405 L 0.94,47.34 a 0.944904,0.853614 -180 0 0 -0.944882,0.853595 z"
   class="st3"
   id="path44"
   inkscape:connector-curvature="0"
   style="fill:url(#grad0-11);stroke:none;stroke-width:0.75;stroke-linecap:butt" />
			</g>
			<g
   id="shape20088-12"
   transform="translate(41.7953,-34.6559)">
				<title
   id="title47">rect31</title>
				<path
   d="m 0,83.59 a 0.346465,0.312992 -180 0 0 0.346457,0.312985 L 5.23,83.91 A 0.346465,0.312992 -180 0 0 5.576457,83.597015 L 5.57,83.54 A 0.346465,0.312992 -180 0 0 5.223543,83.227015 L 0.35,83.22 a 0.346465,0.312992 -180 0 0 -0.346457,0.312985 z"
   class="st4"
   id="path49"
   inkscape:connector-curvature="0"
   style="fill:#f2f2f2;stroke:none;stroke-width:0.75;stroke-linecap:butt" />
			</g>
			<g
   id="shape20089-14"
   transform="translate(34.7402,-4.09726)">
				<title
   id="title52">rect33</title>
				<path
   d="m 0,83.51 a 0.440955,0.398353 -180 0 0 0.440945,0.398344 L 19.24,83.91 a 0.440955,0.398353 -180 0 0 0.440945,-0.398344 L 19.69,54.91 A 0.440955,0.398353 -180 0 0 19.249055,54.511656 L 0.44,54.51 a 0.440955,0.398353 -180 0 0 -0.440945,0.398344 z"
   class="st5"
   id="path54"
   inkscape:connector-curvature="0"
   style="fill:url(#grad0-17);stroke:none;stroke-width:0.75;stroke-linecap:butt" />
			</g>
			<g
   id="shape20090-18"
   transform="translate(23.5591,-43.6187)">
				<title
   id="title57">rect35</title>
				<path
   d="m 0,83.59 a 0.346465,0.312992 -180 0 0 0.346457,0.312985 L 5.23,83.91 A 0.346465,0.312992 -180 0 0 5.576457,83.597015 L 5.57,83.54 A 0.346465,0.312992 -180 0 0 5.223543,83.227015 L 0.35,83.22 a 0.346465,0.312992 -180 0 0 -0.346457,0.312985 z"
   class="st4"
   id="path59"
   inkscape:connector-curvature="0"
   style="fill:#f2f2f2;stroke:none;stroke-width:0.75;stroke-linecap:butt" />
			</g>
			<g
   id="shape20091-20"
   transform="translate(43.2126,-0.796688)">
				<title
   id="title62">rect37</title>
				<path
   d="m 0,83.34 a 0.629936,0.569076 -180 0 0 0.629921,0.569063 L 2.08,83.91 A 0.629936,0.569076 -180 0 0 2.709921,83.340937 L 2.71,82.4 A 0.629936,0.569076 -180 0 0 2.080079,81.830937 L 0.63,81.83 A 0.629936,0.569076 -180 0 0 7.9e-5,82.399063 Z"
   class="st4"
   id="path64"
   inkscape:connector-curvature="0"
   style="fill:#f2f2f2;stroke:none;stroke-width:0.75;stroke-linecap:butt" />
			</g>
		</g>
	</g>
</svg>

<svg xmlns="http://www.w3.org/2000/svg" xml:space="preserve" width="56.696" height="45.36" style="font-size:12px;overflow:visible;color-interpolation-filters:sRGB;fill-rule:evenodd;stroke-linecap:square;stroke-miterlimit:3" viewBox="0 0 56.696 45.36"><defs><linearGradient id="a" x1="-.004" x2="36.53" y1="70.117" y2="70.117" gradientTransform="scale(1.27102 .78677)" gradientUnits="userSpaceOnUse"><stop offset="0" stop-color="#d2ebff"/><stop offset="1" stop-color="#f0fffd"/></linearGradient><linearGradient id="b" x1="-.006" x2="29.78" y1="38.558" y2="38.558" gradientTransform="scale(.81448 1.22778)" gradientUnits="userSpaceOnUse"><stop offset="0" stop-color="#0078d4"/><stop offset=".17" stop-color="#1c84dc"/><stop offset=".38" stop-color="#3990e4"/><stop offset=".59" stop-color="#4d99ea"/><stop offset=".8" stop-color="#5a9eee"/><stop offset="1" stop-color="#5ea0ef"/></linearGradient><linearGradient id="c" x1="-.001" x2="24.059" y1="44.61" y2="44.61" gradientTransform="scale(.81839 1.22191)" gradientUnits="userSpaceOnUse"><stop offset="0" stop-color="#d2ebff"/><stop offset="1" stop-color="#f0fffd"/></linearGradient></defs><g transform="translate(-5.67 -4.534)"><title>Page-1</title><g transform="translate(5.67 -34.016)"><title>Azure Percept Device.20084</title><g transform="translate(0 -11.58)"><title>rect25</title><path d="M0 82.2a1.89 1.707-180 0 0 1.89 1.71h48.76a1.89 1.707-180 0 0 1.89-1.71V51.84a1.89 1.707-180 0 0-1.89-1.71H1.89A1.89 1.707-180 0 0 0 51.84Z" style="fill:#0078d4;stroke:none;stroke-width:.75;stroke-linecap:butt"/></g><g transform="translate(3.055 -14.255)"><title>rect27</title><path d="M0 83.05a.945.854-180 0 0 .945.854l44.535.006a.945.854-180 0 0 .945-.854l.005-27.036a.945.854-180 0 0-.945-.854L.94 55.17a.945.854-180 0 0-.945.854z" style="fill:url(#a);stroke:none;stroke-width:.75;stroke-linecap:butt"/></g><g transform="translate(32.44)"><title>rect29</title><path d="M0 83.05a.945.854-180 0 0 .945.854l22.365.006a.945.854-180 0 0 .945-.854L24.25 48.2a.945.854-180 0 0-.945-.854L.94 47.34a.945.854-180 0 0-.945.854z" style="fill:url(#b);stroke:none;stroke-width:.75;stroke-linecap:butt"/></g><g transform="translate(41.795 -34.656)"><title>rect31</title><path d="M0 83.59a.346.313-180 0 0 .346.313l4.884.007a.346.313-180 0 0 .346-.313l-.006-.057a.346.313-180 0 0-.346-.313L.35 83.22a.346.313-180 0 0-.346.313z" style="fill:#f2f2f2;stroke:none;stroke-width:.75;stroke-linecap:butt"/></g><g transform="translate(34.74 -4.097)"><title>rect33</title><path d="M0 83.51a.441.398-180 0 0 .44.398l18.8.002a.441.398-180 0 0 .44-.398l.01-28.602a.441.398-180 0 0-.44-.398L.44 54.51a.441.398-180 0 0-.44.398z" style="fill:url(#c);stroke:none;stroke-width:.75;stroke-linecap:butt"/></g><g transform="translate(23.56 -43.619)"><title>rect35</title><path d="M0 83.59a.346.313-180 0 0 .346.313l4.884.007a.346.313-180 0 0 .346-.313l-.006-.057a.346.313-180 0 0-.346-.313L.35 83.22a.346.313-180 0 0-.346.313z" style="fill:#f2f2f2;stroke:none;stroke-width:.75;stroke-linecap:butt"/></g><g transform="translate(43.213 -.797)"><title>rect37</title><path d="M0 83.34a.63.57-180 0 0 .63.57h1.45a.63.57-180 0 0 .63-.57v-.94a.63.57-180 0 0-.63-.57H.63a.63.57-180 0 0-.63.57Z" style="fill:#f2f2f2;stroke:none;stroke-width:.75;stroke-linecap:butt"/></g></g></g></svg>
